Numix/scalable/status/changes-allow-symbolic.svg

<?xml version="1.0" encoding="UTF-8" standalone="no"?>
<svg
   xmlns:dc="http://purl.org/dc/elements/1.1/"
   xmlns:cc="http://creativecommons.org/ns#"
   xmlns:rdf="http://www.w3.org/1999/02/22-rdf-syntax-ns#"
   xmlns:svg="http://www.w3.org/2000/svg"
   xmlns="http://www.w3.org/2000/svg"
   xmlns:sodipodi="http://sodipodi.sourceforge.net/DTD/sodipodi-0.dtd"
   xmlns:inkscape="http://www.inkscape.org/namespaces/inkscape"
   width="16"
   viewBox="0 0 16 16"
   height="16"
   id="svg2"
   version="1.1"
   inkscape:version="0.91 r"
   sodipodi:docname="changes-allow-symbolic.svg">
  <metadata
     id="metadata10">
    <rdf:RDF>
      <cc:Work
         rdf:about="">
        <dc:format>image/svg+xml</dc:format>
        <dc:type
           rdf:resource="http://purl.org/dc/dcmitype/StillImage" />
        <dc:title></dc:title>
      </cc:Work>
    </rdf:RDF>
  </metadata>
  <sodipodi:namedview
     pagecolor="#ffffff"
     bordercolor="#666666"
     borderopacity="1"
     objecttolerance="10"
     gridtolerance="10"
     guidetolerance="10"
     inkscape:pageopacity="0"
     inkscape:pageshadow="2"
     inkscape:window-width="1920"
     inkscape:window-height="1056"
     id="namedview8"
     showgrid="true"
     inkscape:zoom="20.85965"
     inkscape:cx="-3.9876107"
     inkscape:cy="7.4799643"
     inkscape:window-x="0"
     inkscape:window-y="24"
     inkscape:window-maximized="1"
     inkscape:current-layer="svg2">
    <inkscape:grid
       type="xygrid"
       id="grid4133" />
  </sodipodi:namedview>
  <defs
     id="defs4" />
  <rect
     style="opacity:1;fill:#bebebe;fill-opacity:1;fill-rule:nonzero;stroke:none;stroke-width:3;stroke-linecap:butt;stroke-linejoin:miter;stroke-miterlimit:4;stroke-dasharray:none;stroke-dashoffset:0;stroke-opacity:1"
     id="rect4146"
     width="14"
     height="10"
     x="1"
     y="6"
     ry="2"
     rx="2" />
  <path
     style="color:#000000;font-style:normal;font-variant:normal;font-weight:normal;font-stretch:normal;font-size:medium;line-height:normal;font-family:sans-serif;text-indent:0;text-align:start;text-decoration:none;text-decoration-line:none;text-decoration-style:solid;text-decoration-color:#000000;letter-spacing:normal;word-spacing:normal;text-transform:none;direction:ltr;block-progression:tb;writing-mode:lr-tb;baseline-shift:baseline;text-anchor:start;white-space:normal;clip-rule:nonzero;display:inline;overflow:visible;visibility:visible;opacity:1;isolation:auto;mix-blend-mode:normal;color-interpolation:sRGB;color-interpolation-filters:linearRGB;solid-color:#000000;solid-opacity:1;fill:#bebebe;fill-opacity:1;fill-rule:nonzero;stroke:none;stroke-width:1.99999988;stroke-linecap:butt;stroke-linejoin:miter;stroke-miterlimit:4;stroke-dasharray:none;stroke-dashoffset:0;stroke-opacity:1;color-rendering:auto;image-rendering:auto;shape-rendering:auto;text-rendering:auto;enable-background:accumulate"
     d="M 8,0 C 7.1797809,0 6.3595617,0.1636629 5.6035156,0.49023438 4.8474695,0.81680584 4.1965907,1.308111 3.7347233,1.9108415 3.5037896,2.2122067 3.3201088,2.5414282 3.1941614,2.8918425 L 5,4 C 5,3.4062293 5.4333678,2.7421867 6.3964844,2.3261719 7.3596009,1.910157 8.6403991,1.910157 9.6035156,2.3261719 10.566632,2.7421867 11,3.4062293 11,4 l 0,3 2,0 0,-3 C 13,2.4554552 11.908576,1.1433773 10.396484,0.49023438 9.6404385,0.16366289 8.8202191,0 8,0 Z"
     id="path4148"
     inkscape:connector-curvature="0"
     sodipodi:nodetypes="sssccsssccsss" />
</svg>

<svg xmlns="http://www.w3.org/2000/svg" viewBox="0 0 16 16">
 <rect width="14" height="10" x="1" y="6" rx="2" style="fill:#bebebe;opacity:1;fill-opacity:1;stroke:none;fill-rule:nonzero"/>
 <path d="m 8 0 c -0.82 0 -1.64 0.164 -2.396 0.49 -0.756 0.327 -1.407 0.818 -1.869 1.421 -0.231 0.301 -0.415 0.631 -0.541 0.981 l 1.806 1.108 c 0 -0.594 0.433 -1.258 1.396 -1.674 0.963 -0.416 2.244 -0.416 3.207 0 0.963 0.416 1.396 1.08 1.396 1.674 l 0 3 2 0 0 -3 c 0 -1.545 -1.091 -2.857 -2.604 -3.51 -0.756 -0.327 -1.576 -0.49 -2.396 -0.49" mix-blend-mode="normal" isolation="auto" white-space="normal" solid-opacity="1" solid-color="#000000" style="visibility:visible;shape-rendering:auto;color-interpolation-filters:linearRGB;fill:#bebebe;opacity:1;image-rendering:auto;fill-opacity:1;stroke:none;display:inline;color:#000;fill-rule:nonzero;color-rendering:auto;color-interpolation:sRGB"/>
</svg>
